assets/img/braze_icons/cloud-raining-04.svg

<svg fill="none" height="24" viewBox="0 0 24 24" width="24" xmlns="http://www.w3.org/2000/svg"><g fill="#801ed7"><path d="m12 1c-2.31095 0-4.33874 1.20617-5.49059 3.01977-3.08425.24959-5.50941 2.8317-5.50941 5.98023 0 3.3137 2.68629 6 6 6h10.5c3.0376 0 5.5-2.4624 5.5-5.5 0-2.86519-2.1909-5.21866-4.9888-5.47655-.9737-2.36082-3.2972-4.02345-6.0112-4.02345z"/><path d="m8 17.5c.55228 0 1 .4477 1 1v2.5c0 .5523-.44772 1-1 1s-1-.4477-1-1v-2.5c0-.5523.44772-1 1-1z"/><path d="m16 17.5c.5523 0 1 .4477 1 1v2.5c0 .5523-.4477 1-1 1s-1-.4477-1-1v-2.5c0-.5523.4477-1 1-1z"/><path d="m13 19.5c0-.5523-.4477-1-1-1s-1 .4477-1 1v2.5c0 .5523.4477 1 1 1s1-.4477 1-1z"/></g></svg>

<svg width="24" height="24" viewBox="0 0 24 24" fill="none" xmlns="http://www.w3.org/2000/svg">
<path d="M12 1C9.68905 1 7.66126 2.20617 6.50941 4.01977C3.42516 4.26936 1 6.85147 1 10C1 13.3137 3.68629 16 7 16H17.5C20.5376 16 23 13.5376 23 10.5C23 7.63481 20.8091 5.28134 18.0112 5.02345C17.0375 2.66263 14.714 1 12 1Z" fill="#801ED7"/>
<path d="M8 17.5C8.55228 17.5 9 17.9477 9 18.5V21C9 21.5523 8.55228 22 8 22C7.44772 22 7 21.5523 7 21V18.5C7 17.9477 7.44772 17.5 8 17.5Z" fill="#801ED7"/>
<path d="M16 17.5C16.5523 17.5 17 17.9477 17 18.5V21C17 21.5523 16.5523 22 16 22C15.4477 22 15 21.5523 15 21V18.5C15 17.9477 15.4477 17.5 16 17.5Z" fill="#801ED7"/>
<path d="M13 19.5C13 18.9477 12.5523 18.5 12 18.5C11.4477 18.5 11 18.9477 11 19.5V22C11 22.5523 11.4477 23 12 23C12.5523 23 13 22.5523 13 22V19.5Z" fill="#801ED7"/>
</svg>
